X: 30
T: Old Favorite (Club C\`eil\`i)
M: 6/8
L: 1/8
S: RJ handout from Michael Pavan 2020-7-14
K: G
"^A" [|] A |\
"G"B3 BAB | dBA G2B |\
[1,3 ded d2B | ded "D"B2A :|\
[2,4 ded "D"cBA | "G"G3 G2 :|\
"^B"|: f |\
"G"g2g "D"f2f | "C"efe "G"d2B |
ded d2B | ded Bdf |\
"G"g2g "D"f2f | "C"efe "G"d2B |\
[1 "D"dge dBA | "G"G3 G2 :|\
[2 "G"dge dge | dge "D"dB |] 
